X: 1800
T: Sultân-ı Menî
C: Hüseyin Fahreddin Dede
O: Turkey
F: http://compmusic.upf.edu/node/140
N: acemasiran--selam--mevlevievferi--sultan-i_meni--huseyin_fahreddin_dede
N: makam= acemasiran
N: form= selam
N: usul= mevlevievferi = 9/4
M: 9/4
L: 1/16
K: C _B   
Q: 1/4=84
%%MIDI tuningsystem comma53
e4 f12 c8 f2e2 f4 z4  | g2_7/8a2 g2f2 b4 a2g2 g3f e2f2 e2g2 f4 z4  | 
w:  Ah  *  sul tân_  |  ı  *  *  *  *  *  me nî   | 
c4 f2f2 fgfe f4 c8 f2e2 f4 z4  | g2_7/8a2 g2f2 b4 a2g2 g3f e2f2 e2f2 e2f2 e2d2  | 
w:  SAZ *  *  *  *  *  *  *  sul tân_  |  ı  *  *  *  *  *  me nî    | 
f3e d2e2 d2e2 d2c2 d6f2 e3d c8  | \
w:  *  *  *  *  *  *  *  *  En *  der   | 
d2_3/4e2 d2c2 g2^3/4f2 e2d2 d3c _1/4B2c2 B2d2 c6z2  | 
w:  dil_ *  *  *  *  *  *  ü  cân   | 
c2_1/4B2 c2_3/4e2 d4 c2_B2 c6B2 c3B A4 z4  | \
w:  cân  *  *  *  *  *  *  î *  mân_  | 
A4 G2F2 A2G4A2 G3F E2F2 E2G2 F4 z4  | 
w:  ı  *  *  *  *  me nî    | 
e4 f12 c8 f2e2 f4 z4  | g2_7/8a2 g2f2 b4 a2g2 g3f e2f2 e2g2 f4 z4  | 
w:  Ah  *  sul tân_  |  ı  *  *  *  *  *  me nî   | 
c4 f2f2 fgfe f4 c8 f2e2 f4 z4  | g2_7/8a2 g2f2 b4 a2g2 g3f e2f2 e2f2 e2f2 e2d2  | 
w:  SAZ *  *  *  *  *  *  *  sul tân_  |  ı  *  *  *  *  *  me nî    | 
f3e d2e2 d2e2 d2c2 d6f2 e3d c8  | \
w:  *  *  *  *  *  *  *  *  En *  der   | 
d2_3/4e2 d2c2 g2^3/4f2 e2d2 d3c _1/4B2c2 B2d2 c6z2  | 
w:  dil_ *  *  *  *  *  *  ü  cân   | 
c2_1/4B2 c2_3/4e2 d4 c2_B2 c6B2 c3B A4 z4  | \
w:  cân  *  *  *  *  *  *  î *  mân_  | 
A4 G2F2 A2G4A2 G3F E2F2 E2G2 F4 z4  | 
w:  ı  *  *  *  *  me nî    | 
|


